Hatter-kde-dark/actions/16/dialog-ok-apply.svg

<svg xmlns="http://www.w3.org/2000/svg" viewBox="0 0 16 16">
  <defs id="defs3051">
    <style type="text/css" id="current-color-scheme">
      .ColorScheme-Text {
        color:#dedede;
      }
      </style>
  </defs>
 <path style="fill:currentColor;fill-opacity:1;stroke:none" 
     d="M 13.273438 3.5 L 5.6367188 11.060547 L 2.7265625 8.1796875 L 2 8.9003906 L 4.9082031 11.779297 L 5.6367188 12.5 L 6.7265625 11.419922 L 14 4.2207031 L 13.273438 3.5 z "
     class="ColorScheme-Text"
     />
</svg>

<?xml version="1.0" encoding="UTF-8"?>
<svg viewBox="0 0 16 16" xmlns="http://www.w3.org/2000/svg">
 <defs id="defs3051">
  <style id="current-color-scheme" type="text/css">.ColorScheme-Text {
        color:#dedede;
      }</style>
 </defs>
 <path class="ColorScheme-Text" d="m13.273 3.5-7.6367 7.5605-2.9102-2.8809-0.72656 0.7207 2.9082 2.8789 0.72852 0.7207 1.0898-1.0801 7.2734-7.1992-0.72656-0.7207z" fill="currentColor"/>
</svg>
